X: 9267
T: Danbury Hill
R: jig
M: 6/8
K: Eminor
|:EGB c2 B|AFD B2 A|GFE FED|EGB AFD|
EGB c2 B|AFD B2 A|GFE FED|1 E6:|2 E3 EGB||
|:e2 ^d - ^d =d2|^c2 =c - =c B2|BcB A2 G|BcB A2 G|
e2 ^d - ^d =d2|^c2 =c - =c B2|BcB AGF|1 E3 EGB:|2 E6||

